!!!COM: Anon.
!!!OTL: Sol Sub Nube Latuit
!!!SCA: Folio 354'-355
!!!YOR: from 'Thirty-Five Conductus for Two and Three Voices', p.122
!!!YOR: edited by Janet Knapp, Collegium Musicum No. 6, Yale University (1965)
!!!YOR: from the School of Notre Dame; circa 1170-1240
!!!YOO: Yale University
!!!YOY: 1965
**kern	**kern
*M6/8	*M6/8
=1	=1
4D	4F
8C	8G
4D	4F
8E	8E
=2	=2
8F	4D
8E	.
8D	16E
.	16D
4E	4C
8r	8r
=3	=3
4D	8F
.	8E
8C	8E
8D	8C
8E	8D
8F	8AA
=4	=4
8E	8C
8D	8D
8C	8E
4D	4D
8r	8r
=5	=5
4D	4F
8C	8G
4D	4A
8E	8G
=6	=6
8F	16F
.	16E
16F	8D
16E	.
8D	8G
4E	4E
8r	8r
=7	=7
4D	8A
.	16A
.	16G
8C	8F
8D	8E
8E	8D
8F	8C
=8	=8
8E	8D
8D	8E
8C	16F
.	16E
4D	4D
8r	8r
=9	=9
16A	16F
16G	16E
8F	8D
8E	8C
4D	8A
.	16A
.	16G
8G	{24F
.	24E
.	24D}
=10	=10
8F	4C
16F	.
16E	.
8D	{24D
.	24E
.	24F}
4C	4G
8r	8r
=11	=11
4C	4G
8D	{24A
.	24A
.	24G}
4F	16F
.	16E
.	8D
8G	8C
=12	=12
4F	16F
.	16G
.	8A
8E	8G
4F	4F
8r	8r
=13	=13
16A	8E
16G	.
8F	8D
8E	8C
4D	4D
8G	8C
=14	=14
8F	8F
16F	8E
16E	.
8D	8F
4C	4G
8r	8r
=15	=15
4C	4G
8D	16A
.	16G
4F	16F
.	16E
.	16D
.	16E
16G	8AA
16F	.
=16	=16
8E	8C
8D	8D
8C	8E
4D	4D
8r	8r
=17	=17
8F	8F
16F	16F
16E	16E
16D	16F
16C	16G
4D	8F
.	16F
.	16E
16E	16D
16F	16C
=18	=18
4.E	8D
.	4E
4E	4AA
8r	8r
=19	=19
4F	4F
8G	8E
4A	8D
.	8C
8B	8D
=20	=20
16A	8E
16G	.
8F	8D
8E	8C
4D	4D
8r	8r
=21	=21
4E	4E
8F	8D
4G	4C
16A	8D
16G	.
=22	=22
8F	8F
8E	8E
8D	8F
4C	4G
8r	8r
=23	=23
4D	4A
8E	8G
4F	4F
8D	8G
=24	=24
4.E	4.E
4C	4E
8r	8r
=25	=25
4D	4A
8E	8G
4F	4F
8D	8G
=26	=26
4.E	4.E
4C	4E
8r	8r
=27	=27
4A	4D
8B	8E
4G	4G
8A	8F
=28	=28
4D	4A
8C	8G
4F	8F
.	8E
8G	8D
=29	=29
8F	4E
8E	.
8D	8F
4.C	4.E
=30	=30
4.C	4.E
4D	4D
8r	8r
==	==
*-	*-
!!!ENC: David Huron
!!!YEC: Copyright 1987, David Huron
!!!EEV: 1.0
